src/pos-icons/lightbulb-cfl-spiral-off.svg

<svg height="24" viewBox="0 0 24 24" width="24" xmlns="http://www.w3.org/2000/svg"><path d="m15.45 9.9-1.57.78-1.5-1.5 2.17-1.08c.14-.07.29-.1.45-.1 1 0 1.42 1.34.45 1.9m-4.23-1.9 4.23-2.1c.96-.47.55-1.9-.45-1.9-.17 0-.31.03-.45.1l-4.83 2.4zm9.62 14.73-4.75-4.73h-8.09c-.56 0-1-.45-1-1v-3h1v-2c0-.4.2-.75.7-.97l.3-.15-7.89-7.88 1.28-1.27 19.72 19.73zm-8.73-8.73-1.61-1.62-.5.24v1.38zm-3.11 7c0 .57.46 1 1 1h4c.56 0 1-.45 1-1v-1h-6zm0-16c.16 0 .32-.05.45-.1l2-1c.98-.54.55-1.9-.45-1.9-.16 0-.31.03-.45.1l-2 1c-.99.56-.55 1.9.45 1.9z"/></svg>

<?xml version="1.0" encoding="UTF-8"?><!DOCTYPE svg PUBLIC "-//W3C//DTD SVG 1.1//EN" "http://www.w3.org/Graphics/SVG/1.1/DTD/svg11.dtd"><svg xmlns="http://www.w3.org/2000/svg" xmlns:xlink="http://www.w3.org/1999/xlink" version="1.1" id="mdi-lightbulb-cfl-spiral-off" width="24" height="24" viewBox="0 0 24 24"><path d="M15.45 9.9L13.88 10.68L12.38 9.18L14.55 8.1C14.69 8.03 14.84 8 15 8C16 8 16.42 9.34 15.45 9.9M11.22 8L15.45 5.9C16.41 5.43 16 4 15 4C14.83 4 14.69 4.03 14.55 4.1L9.72 6.5L11.22 8M20.84 22.73L16.09 18H8C7.44 18 7 17.55 7 17V14H8V12C8 11.6 8.2 11.25 8.7 11.03L9 10.88L1.11 3L2.39 1.73L22.11 21.46L20.84 22.73M12.11 14L10.5 12.38L10 12.62V14H12.11M9 21C9 21.57 9.46 22 10 22H14C14.56 22 15 21.55 15 21V20H9V21M9 5C9.16 5 9.32 4.95 9.45 4.9L11.45 3.9C12.43 3.36 12 2 11 2C10.84 2 10.69 2.03 10.55 2.1L8.55 3.1C7.56 3.66 8 5 9 5Z" /></svg>
